app/dist/common/images/prog.svg

<svg height="18" viewBox="0 0 18 18" width="18" xmlns="http://www.w3.org/2000/svg"><path d="m0 0h18v18h-18z" fill="#0494c7"/><path d="m9.45 3.06a.5.5 0 0 0 -.47 0l-3.22 1.72a.5.5 0 0 0 -.26.44v7.56c0 .18.1.35.25.44l3 1.71a.5.5 0 0 0 .75-.43v-3.76l3.23-1.7a.5.5 0 0 0 .27-.44v-3.38a.5.5 0 0 0 -.27-.44zm.05 6.86 2.8-1.46v-3.18l-3.04-1.59-2.72 1.41 2.7 1.55a.5.5 0 0 1 .26.43zm-3.3-1.91v-2.37l2.6 1.63v7l-2.6-1.63v-4.64z" fill="#fff" fill-rule="evenodd"/></svg>

<!-- by TradingView --><svg xmlns="http://www.w3.org/2000/svg" width="18" height="18" viewBox="0 0 18 18"><path fill="#0494C7" d="M0 0h18v18H0z"/><path fill-rule="evenodd" d="M9.45 3.06a.5.5 0 0 0-.47 0L5.76 4.78a.5.5 0 0 0-.26.44v7.56c0 .18.1.35.25.44l3 1.71a.5.5 0 0 0 .75-.43v-3.76l3.23-1.7A.5.5 0 0 0 13 8.6V5.22a.5.5 0 0 0-.27-.44L9.45 3.06Zm.05 6.86 2.8-1.46V5.28L9.26 3.69 6.54 5.1l2.7 1.55a.5.5 0 0 1 .26.43v2.84ZM6.2 8.01V5.64l2.6 1.63v7l-2.6-1.63V8Z" fill="#fff"/></svg>
